Papirus/22x22/apps/chrome-remote-desktop.svg

<svg xmlns="http://www.w3.org/2000/svg" width="22" height="22" version="1">
 <defs>
  <linearGradient id="linearGradient4088" x1="168" x2="160" y1="266" y2="270" gradientTransform="matrix(.29954 0 0 .29984 -36.936 -66.962)" gradientUnits="userSpaceOnUse">
   <stop offset="0"/>
   <stop offset="1" stop-opacity="0"/>
  </linearGradient>
 </defs>
 <rect fill="#5f7c8a" width="16" height="20" x="-19" y="-21" rx="1" ry="1" transform="matrix(0,-1,-1,0,0,0)"/>
 <rect fill="#7f96a1" width="12" height="16" x="-17" y="-19" rx="0" ry="0" transform="matrix(0,-1,-1,0,0,0)"/>
 <path fill="#fff" opacity=".2" d="m2 3c-0.554 0-1 0.446-1 1v0.5c0-0.554 0.446-1 1-1h18c0.554 0 1 0.446 1 1v-0.5c0-0.554-0.446-1-1-1h-18z"/>
 <path opacity=".2" d="m1 18v0.5c0 0.554 0.446 1 1 1h18c0.554 0 1-0.446 1-1v-0.5c0 0.554-0.446 1-1 1h-18c-0.554 0-1-0.446-1-1z"/>
 <path fill="#dd4d3e" d="m10.991 5c-2.1019 0-3.9394 1.0776-5.0082 2.7079-0.0378 2.4431 1.5145 3.2941 2.6397 4.5731-0.207-0.383-0.3277-0.817-0.3277-1.284 0-1.495 1.2116-1.9327 2.6959-2.0989l5.354-0.5998c-0.983-1.9608-3.005-3.2982-5.354-3.2982z"/>
 <path fill="#109f5b" d="m5.8087 14.013c1.0508 1.822 2.902 2.876 4.8473 2.987 2.0738-1.1443 3.1731-2.5989 2.6362-4.5747-0.22735 0.37069-0.54259 0.69227-0.94679 0.92585-0.64228 0.3712-1.237-0.01895-1.899-0.19281-0.67112-0.17624-1.4078-0.14315-1.7837-0.79494l-2.6779-4.6424c-1.2049 1.8326-1.3508 4.2544-0.1763 6.2914z"/>
 <path fill="#ffce41" d="m16.196 13.996c1.0509-1.822 1.0374-3.9537 0.16118-5.6952l-5.2758 0.0021c0.4344 0.011754 0.87023 0.12424 1.2744 0.35783 0.69122 0.39948 0.62625 1.1888 0.77914 1.9103 0.1332 0.62853 0.55529 1.1732 0.20761 1.776l-2.6772 4.6415c2.1879 0.12833 4.3562-0.95619 5.5308-2.9927z"/>
 <path fill="url(#linearGradient4088)" opacity=".2" d="m13.325 12.346-2.3346-1.3493-0.35046 5.9995z"/>
 <rect opacity=".2" width="5.397" height="5.392" x="-13.99" y="-13.69" rx="2.699" ry="2.696" transform="matrix(0,-1,-1,0,0,0)"/>
 <rect fill="#fff" width="6" height="6" x="-14" y="-14" rx="3" ry="3" transform="matrix(0,-1,-1,0,0,0)"/>
 <rect fill="#4587f3" width="4" height="4" x="-13" y="-13" rx="2" ry="2" transform="matrix(0,-1,-1,0,0,0)"/>
</svg>

<svg xmlns="http://www.w3.org/2000/svg" width="22" height="22" version="1">
 <defs>
  <linearGradient id="linearGradient4088" x1="168" x2="160" y1="266" y2="270" gradientTransform="matrix(0.29954,0,0,0.29984,-36.936,-66.962)" gradientUnits="userSpaceOnUse">
   <stop offset="0"/>
   <stop offset="1" stop-opacity="0"/>
  </linearGradient>
 </defs>
 <rect style="fill:#325f78" width="16" height="20" x="-19" y="-21" rx="1" ry="1" transform="matrix(0,-1,-1,0,0,0)"/>
 <rect style="opacity:0.2" width="12" height="16" x="-17" y="-19" rx="0" ry="0" transform="matrix(0,-1,-1,0,0,0)"/>
 <path style="opacity:0.1;fill:#ffffff" d="M 2,3 C 1.446,3 1,3.446 1,4 l 0,0.5 c 0,-0.554 0.446,-1 1,-1 l 18,0 c 0.554,0 1,0.446 1,1 L 21,4 C 21,3.446 20.554,3 20,3 L 2,3 Z"/>
 <path style="opacity:0.2" d="m 1,18 0,0.5 c 0,0.554 0.446,1 1,1 l 18,0 c 0.554,0 1,-0.446 1,-1 L 21,18 c 0,0.554 -0.446,1 -1,1 L 2,19 C 1.446,19 1,18.554 1,18 Z"/>
 <path style="fill:#dd4d3e" d="M 10.991,5 C 8.8891,5 7.0516,6.0776 5.9828,7.7079 5.945,10.151 7.4973,11.002 8.6225,12.281 8.4155,11.898 8.2948,11.464 8.2948,10.997 c 0,-1.495 1.2116,-1.9327 2.6959,-2.0989 l 5.354,-0.5998 c -0.983,-1.9608 -3.005,-3.2982 -5.354,-3.2982 z"/>
 <path style="fill:#109f5b" d="m 5.8087,14.013 c 1.0508,1.822 2.902,2.876 4.8473,2.987 2.0738,-1.1443 3.1731,-2.5989 2.6362,-4.5747 -0.22735,0.37069 -0.54259,0.69227 -0.94679,0.92585 -0.64228,0.3712 -1.237,-0.01895 -1.899,-0.19281 C 9.77529,12.9821 9.03861,13.01519 8.66271,12.3634 L 5.98481,7.721 c -1.2049,1.8326 -1.3508,4.2544 -0.1763,6.2914 z"/>
 <path style="fill:#ffce41" d="m 16.196,13.996 c 1.0509,-1.822 1.0374,-3.9537 0.16118,-5.6952 l -5.2758,0.0021 c 0.4344,0.011754 0.87023,0.12424 1.2744,0.35783 0.69122,0.39948 0.62625,1.1888 0.77914,1.9103 0.1332,0.62853 0.55529,1.1732 0.20761,1.776 l -2.6772,4.6415 c 2.1879,0.12833 4.3562,-0.95619 5.5308,-2.9927 z"/>
 <path style="opacity:0.2;fill:url(#linearGradient4088)" d="m 13.325,12.346 -2.3346,-1.3493 -0.35046,5.9995 z"/>
 <rect style="opacity:0.2" width="5.397" height="5.392" x="-13.99" y="-13.69" rx="2.699" ry="2.696" transform="matrix(0,-1,-1,0,0,0)"/>
 <rect style="fill:#ffffff" width="6" height="6" x="-14" y="-14" rx="3" ry="3" transform="matrix(0,-1,-1,0,0,0)"/>
 <rect style="fill:#4587f3" width="4" height="4" x="-13" y="-13" rx="2" ry="2" transform="matrix(0,-1,-1,0,0,0)"/>
</svg>
